svgs/regular/skull.svg

<svg xmlns="http://www.w3.org/2000/svg" viewBox="0 0 512 512"><!-- Font Awesome Pro 6.0.0-alpha2 by @fontawesome - https://fontawesome.com License - https://fontawesome.com/license (Commercial License) --><path d="M344 200C313.125 200 288 225.125 288 256S313.125 312 344 312S400 286.875 400 256S374.875 200 344 200ZM168 200C137.125 200 112 225.125 112 256S137.125 312 168 312S224 286.875 224 256S198.875 200 168 200ZM256 0C114.625 0 0 100.25 0 224C0 294.125 36.875 356.625 94.5 397.75C104.25 404.625 109.75 415.75 108 427.625L101.25 475.5C98.5 494.75 113.375 512 132.875 512H379.25C398.75 512 413.625 494.75 410.875 475.5L404.125 427.625C402.375 415.875 407.875 404.625 417.625 397.75C475.125 356.625 512 294.125 512 224C512 100.25 397.375 0 256 0ZM389.75 358.625C365.125 376.125 352.375 405.125 356.5 434.25L360.75 464H320V440C320 426.8 309.2 416 296 416H296C282.8 416 272 426.8 272 440V464H240V440C240 426.8 229.2 416 216 416H216C202.8 416 192 426.8 192 440V464H151.25L155.5 434.25C159.625 405.125 146.875 376.125 122.25 358.625C75.125 324.875 48 275.875 48 224C48 127 141.25 48 256 48S464 127 464 224C464 275.875 436.875 324.875 389.75 358.625Z"/></svg>

<svg xmlns="http://www.w3.org/2000/svg" viewBox="0 0 512 512"><!-- Font Awesome Pro 5.15.1 by @fontawesome - https://fontawesome.com License - https://fontawesome.com/license (Commercial License) --><path d="M344 200c-30.9 0-56 25.1-56 56s25.1 56 56 56 56-25.1 56-56-25.1-56-56-56zm-176 0c-30.9 0-56 25.1-56 56s25.1 56 56 56 56-25.1 56-56-25.1-56-56-56zM256 0C114.6 0 0 100.3 0 224c0 70.1 36.9 132.6 94.5 173.7 9.7 6.9 15.2 18.1 13.5 29.9l-6.8 47.9c-2.7 19.3 12.2 36.5 31.7 36.5h246.3c19.5 0 34.4-17.2 31.7-36.5l-6.8-47.9c-1.7-11.7 3.8-23 13.5-29.9C475.1 356.6 512 294.1 512 224 512 100.3 397.4 0 256 0zm133.7 358.6c-24.6 17.5-37.3 46.5-33.2 75.7l4.2 29.7H320v-40c0-4.4-3.6-8-8-8h-16c-4.4 0-8 3.6-8 8v40h-64v-40c0-4.4-3.6-8-8-8h-16c-4.4 0-8 3.6-8 8v40h-40.7l4.2-29.7c4.1-29.2-8.6-58.2-33.2-75.7C75.1 324.9 48 275.9 48 224c0-97 93.3-176 208-176s208 79 208 176c0 51.9-27.1 100.9-74.3 134.6z"/></svg>
